dist/img/svg/copy.svg

<svg width="13" height="14" viewBox="0 0 13 14" fill="none" xmlns="http://www.w3.org/2000/svg">
<path d="M11.4989 6.08333C11.4924 4.90521 11.4404 4.26713 11.0239 3.85113C10.5483 3.375 9.78183 3.375 8.25 3.375H6.625C5.09317 3.375 4.32671 3.375 3.85113 3.85113C3.375 4.32671 3.375 5.09317 3.375 6.625V9.33333C3.375 10.8652 3.375 11.6316 3.85113 12.1072C4.32671 12.5833 5.09317 12.5833 6.625 12.5833H8.25C9.78183 12.5833 10.5483 12.5833 11.0239 12.1072C11.5 11.6316 11.5 10.8652 11.5 9.33333V8.79167" stroke="currentColor" stroke-width="1.5" stroke-linecap="round"/>
<path d="M0.75 5.08333V8.33333C0.75 8.76431 0.921205 9.17763 1.22595 9.48238C1.5307 9.78713 1.94402 9.95833 2.375 9.95833M8.875 2.375C8.875 1.94402 8.7038 1.5307 8.39905 1.22595C8.0943 0.921205 7.68098 0.75 7.25 0.75H5.08333C3.04071 0.75 2.01913 0.75 1.38483 1.38483C1.03058 1.73854 0.874042 2.2125 0.80525 2.91667" stroke="currentColor" stroke-width="1.5" stroke-linecap="round"/>
</svg>

<svg width="13" height="14" viewBox="0 0 13 14" fill="none" xmlns="http://www.w3.org/2000/svg"><path d="M11.499 6.083c-.007-1.178-.059-1.816-.475-2.232-.476-.476-1.242-.476-2.774-.476H6.625c-1.532 0-2.298 0-2.774.476s-.476 1.242-.476 2.774v2.708c0 1.532 0 2.299.476 2.774.476.476 1.242.476 2.774.476H8.25c1.532 0 2.298 0 2.774-.476.476-.475.476-1.242.476-2.774v-.541M.75 5.083v3.25a1.625 1.625 0 001.625 1.625m6.5-7.583A1.625 1.625 0 007.25.75H5.083c-2.042 0-3.064 0-3.698.635-.354.354-.511.827-.58 1.532" stroke="currentColor" stroke-width="1.5" stroke-linecap="round"/></svg>
